src/resources/assets/next.svg

<svg xmlns="http://www.w3.org/2000/svg" width="16" height="16"><path d="M 3.578125 2.148438 C 2.914062 1.679688 2 2.152344 2 2.964844 L 2 13.035156 C 2 13.84375 2.914062 14.320312 3.578125 13.851562 L 10.710938 8.816406 C 11.273438 8.417969 11.273438 7.582031 10.710938 7.183594 Z M 3 2.964844 L 10.132812 8 L 3 13.035156 Z M 14 2.5 C 14 2.222656 13.777344 2 13.5 2 C 13.222656 2 13 2.222656 13 2.5 L 13 13.5 C 13 13.777344 13.222656 14 13.5 14 C 13.777344 14 14 13.777344 14 13.5 Z M 14 2.5" fill="#ddd"/></svg>

<svg xmlns="http://www.w3.org/2000/svg" width="16" height="16"><path d="M3.578 2.148A1 1 0 002 2.965v10.07a1 1 0 001.578.817l7.133-5.036a1 1 0 000-1.632zM3 2.965L10.133 8 3 13.035zM14 2.5c0-.277-.223-.5-.5-.5s-.5.223-.5.5v11c0 .277.223.5.5.5s.5-.223.5-.5zm0 0" fill="#ddd"/></svg>
